X:13
T:The Fairy Fort
R:fling
C:Jim McGraw
O:Co. Fermanagh, Ireland
S:http://www.cranfordpub.com/recordings/mcgraw.htm
D:Melodious Accord, Jim McGraw
Z:psc
H:These three flings take their titles from the townland of Drumbeggan. The mile-long concrete lane below our house leads In the Lane to Carran passing a large circle of trees known locally as The Fairy Fort and ending at The Poet's House (Peadar Burns) overlooking the lakes of Carran and Ross and the surrounding Boho countryside. A truly inspirational part of Fermanagh.
L:1/8
Q:333
M:C|
K:A
c2 Bc A2 AF|E2 CE A,fed|cA A/A/A fedc|dBBA B2 ed|
(3(cdc) (3(BcB) ABAF|E2 CE A,feA|(3Bcd ef afed|[1c2 A2 A2 ed:|[2c2 A2 A2 z||
|:d|cA A/A/A eA A/A/A|fedf eA A/A/A|cA A/A/A fedc|dBBA B3 d|
cA A/A/A eA A/A/A|fedf eA A/A/A|(3Bcd ef afed|[1c2 A2 A2 z:|[2c2 A2 A2 ed|]
